X: 1074
T: The Barefoot Boy
R:double jig
N:"collected by Kerwin"
B:O'Neill's 1074
Z:Transcribed by henrik.norbeck@mailbox.swipnet.se
M:6/8
L:1/8
K:G
E|DGG TA2G|FDD FEF|DGG A2G|Add cAF|
DGG TA2G|FDD FGA|BdB cAF|AGG G2:|
c|B2B cAA|BAG FGA|BdB cAc|BGB c2A|
[1 B2B cAA|BAG FGA|BdB cAF|AGG G2:|
[2 GBd gfe|dec Bcd|ecA FGA|BGG G2||


